X: 24653
T: MacFarlane's Rant
R: reel
M: 4/4
K: Dmajor
|fA A2 edBd|fA A2 e2 de|fA A2 edBd|faaf e2 de|
fA A2 edBd|fafd e2 de|fA A2 edBd|faaf e2 de||
f3d edBd|eAfA edBd|f3d edBd|faaf e2 de|
f3d edBd|eAfA gAfA|fA A2 edBd|fafe d3e||

